static/assets/images/tokens/oseth.svg

<svg width="256" height="256" viewBox="0 0 256 256" fill="none" xmlns="http://www.w3.org/2000/svg">
<path d="M128 256C198.692 256 256 198.692 256 128C256 57.3076 198.692 0 128 0C57.3076 0 0 57.3076 0 128C0 198.692 57.3076 256 128 256Z" fill="white"/>
<path d="M128.001 138.241L201.217 174.081L128.001 211.457V138.241Z" fill="url(#paint0_linear_9442_696)"/>
<path d="M171.009 116.736L201.217 174.08L128.001 138.24L171.009 116.736Z" fill="url(#paint1_linear_9442_696)"/>
<path d="M127.999 138.241V34.3047L84.9912 116.737L127.999 138.241Z" fill="url(#paint2_linear_9442_696)"/>
<path d="M128.001 138.241V34.3047L171.009 116.737L128.001 138.241Z" fill="url(#paint3_linear_9442_696)"/>
<path d="M128.001 211.457L54.7852 174.081L128.001 138.241V211.457Z" fill="url(#paint4_linear_9442_696)"/>
<path d="M84.9934 116.736L128.001 138.24L54.7852 174.08L84.9934 116.736Z" fill="url(#paint5_linear_9442_696)"/>
<defs>
<linearGradient id="paint0_linear_9442_696" x1="148.831" y1="183.265" x2="162.853" y2="215.075" gradientUnits="userSpaceOnUse">
<stop stop-color="#5577EE"/>
<stop offset="1" stop-color="#84A6FF"/>
</linearGradient>
<linearGradient id="paint1_linear_9442_696" x1="159.666" y1="154.971" x2="216.832" y2="91.9864" gradientUnits="userSpaceOnUse">
<stop stop-color="#33B6FF"/>
<stop offset="1" stop-color="#6562FD"/>
</linearGradient>
<linearGradient id="paint2_linear_9442_696" x1="137.671" y1="86.2355" x2="99.9378" y2="86.2355" gradientUnits="userSpaceOnUse">
<stop stop-color="#695CFB"/>
<stop offset="1" stop-color="#479AFD"/>
</linearGradient>
<linearGradient id="paint3_linear_9442_696" x1="140.236" y1="98.2195" x2="167.149" y2="123.483" gradientUnits="userSpaceOnUse">
<stop stop-color="#5577EE"/>
<stop offset="1" stop-color="#84A6FF"/>
</linearGradient>
<linearGradient id="paint4_linear_9442_696" x1="70.6376" y1="149.51" x2="145.445" y2="187.21" gradientUnits="userSpaceOnUse">
<stop stop-color="#45C7FF"/>
<stop offset="1" stop-color="#0E2450"/>
</linearGradient>
<linearGradient id="paint5_linear_9442_696" x1="91.7614" y1="152.099" x2="99.8088" y2="127.915" gradientUnits="userSpaceOnUse">
<stop stop-color="#4AB0EA"/>
<stop offset="1" stop-color="#6D7F9B"/>
</linearGradient>
</defs>
</svg>

<svg xmlns="http://www.w3.org/2000/svg" fill="none" viewBox="0 0 256 256"><path fill="#fff" d="M128 256c70.692 0 128-57.308 128-128S198.692 0 128 0 0 57.308 0 128s57.308 128 128 128"/><path fill="url(#paint0_linear_9442_696)" d="m128.001 138.241 73.216 35.84-73.216 37.376z"/><path fill="url(#paint1_linear_9442_696)" d="m171.009 116.736 30.208 57.344-73.216-35.84z"/><path fill="url(#paint2_linear_9442_696)" d="M127.999 138.241V34.305l-43.008 82.432z"/><path fill="url(#paint3_linear_9442_696)" d="M128.001 138.241V34.305l43.008 82.432z"/><path fill="url(#paint4_linear_9442_696)" d="m128.001 211.457-73.216-37.376 73.216-35.84z"/><path fill="url(#paint5_linear_9442_696)" d="m84.993 116.736 43.008 21.504-73.216 35.84z"/><defs><linearGradient id="paint0_linear_9442_696" x1="148.831" x2="162.853" y1="183.265" y2="215.075" gradientUnits="userSpaceOnUse"><stop stop-color="#57E"/><stop offset="1" stop-color="#84A6FF"/></linearGradient><linearGradient id="paint1_linear_9442_696" x1="159.666" x2="216.832" y1="154.971" y2="91.986" gradientUnits="userSpaceOnUse"><stop stop-color="#33B6FF"/><stop offset="1" stop-color="#6562FD"/></linearGradient><linearGradient id="paint2_linear_9442_696" x1="137.671" x2="99.938" y1="86.236" y2="86.236" gradientUnits="userSpaceOnUse"><stop stop-color="#695CFB"/><stop offset="1" stop-color="#479AFD"/></linearGradient><linearGradient id="paint3_linear_9442_696" x1="140.236" x2="167.149" y1="98.219" y2="123.483" gradientUnits="userSpaceOnUse"><stop stop-color="#57E"/><stop offset="1" stop-color="#84A6FF"/></linearGradient><linearGradient id="paint4_linear_9442_696" x1="70.638" x2="145.445" y1="149.51" y2="187.21" gradientUnits="userSpaceOnUse"><stop stop-color="#45C7FF"/><stop offset="1" stop-color="#0E2450"/></linearGradient><linearGradient id="paint5_linear_9442_696" x1="91.761" x2="99.809" y1="152.099" y2="127.915" gradientUnits="userSpaceOnUse"><stop stop-color="#4AB0EA"/><stop offset="1" stop-color="#6D7F9B"/></linearGradient></defs></svg>
